src/assets/svg/2-home/5-toggle-stories.svg

<svg width="25" height="25" viewBox="0 0 25 25" fill="none" xmlns="http://www.w3.org/2000/svg">
<path d="M7.29167 20.8334V4.16675H17.7083V20.8334H7.29167ZM3.125 18.7501V6.25008H4.6875V18.7501H3.125ZM20.3125 18.7501V6.25008H21.875V18.7501H20.3125ZM8.85417 19.2709H16.1458V5.72925H8.85417V19.2709ZM8.85417 19.2709V5.72925V19.2709Z" fill="#E9E8E8"/>
</svg>

<svg width="25" height="25" fill="none" xmlns="http://www.w3.org/2000/svg"><path d="M7.292 20.833V4.167h10.416v16.666H7.292ZM3.125 18.75V6.25h1.563v12.5H3.125Zm17.188 0V6.25h1.562v12.5h-1.563Zm-11.459.52h7.292V5.73H8.854v13.54Zm0 0V5.73v13.54Z" fill="#E9E8E8"/></svg>
